X: 26600
T: Mick O'Connor's
R: reel
M: 4/4
K: Eminor
A,B,DA, FD{G}ED|B,E F/E/D EFDB,|A,B,DE FABc|dBAF EFDB,|
G,A,2 G FD{G}ED|B,E F/E/D EFDB,|A,B,DE FABc|dBAF EFDB,|
G,A,2 G FD{G}ED|B,E{G}ED EFDB,|A,B,DE FABc|dBAF EFDB,|
G,A,2 G FD{G}ED|B,E F/E/D EFDB,|A,B,DE FABc|dBAF EFDA||
d2 fa fafa|edBd edBA|defa defa|eAde fddc|
{c}d2 fa fafa|edBd e/e/dBA|d3 a {b}afaf|eAde fddc|
{c}d2 fa fafa|edBd edBA|defa defa|eAde fddc|
{c}d2 fa fafa|edBd edBA|~d3 a {b}afaf|eAde fdd2||

